X: 9
T: The Wandering Minstrel
R: jig
M: 6/8
L: 1/8
K: Dmaj
|: ADD BAF | Ade fed | ADD BAG | FAF GFE |
| ADD BAF | Ade fdB | AdB AFE | FDD D3 :|
|: e | fgf ede | fdB AFA | BdB AFd | BGF E3|
| f3 ede | fdB AFA | BdB AFE | FDD D2 :|
|: e | f3 afd | gbd gbd | f3 afd | ceA c/d/eA |
| f3 afd | gbd gbd | fgf ede | fdc d2 :|


Tune 2025	Setting 24226

